X: 10472
T: Donie Nolan's
R: barndance
M: 4/4
K: Dmajor
F3G FEDE|FBAF E2DE|FAAB AFDE|F2 E2 E2 FE|
D2 FA BABc|dBAF E2DE|FAAB AFEG|F2 D2 D3 E|
F3G FEDE|FBAF E2DE|FAAB AFDE|F2 E2 E2 FE|
D2 FA d2 (3cBA|BdAF E2DE|FAAB AFEG|F2 D2 D2 de||
fedB A2 de|fedB A2 de|fedB AFDE|F2 E2 E2 FE|
D2 FA BABc|dBAF E2DE|FAAB AFEG|F2 D2 D2 de||
fedB A2 de|fedB A2 de|fedB AFDE|F2 E2 E2 FE|
D2 FA d2 (3cBA|BdAF E2DE|FAAB AFEG|F2 D2 D3 E||

